Adwaita++-Dark/actions/22/media-playlist-repeat.svg

<svg height="22" viewBox="0 0 22 22" width="22" xmlns="http://www.w3.org/2000/svg">
  <path d="m5 2v2h-2.0683594c-1.0698 0-1.9316406.9391187-1.9316406 2.1054688v5.7890622c0 1.1663.8618906 2.105469 1.9316406 2.105469h10.1367184c1.0698 0 1.931641-.939119 1.931641-2.105469v-5.7890622c0-1.1663001-.861891-2.1054688-1.931641-2.1054688h-2.068359v2h1.998047c-.002.009.001953.0262987.001953.1054688v5.7890622c0 .0791-.003953.096599-.001953.105469h-9.9941408c.0010001-.009-.0039062-.026299-.0039062-.105469v-5.7890622c0-.0792001.0049062-.0965988.0039062-.1054688h1.9960938v2l4-3z" fill="#e6ddff" transform="translate(3 3)"/>
</svg>

<svg xmlns="http://www.w3.org/2000/svg" width="22" height="22" viewBox="0 0 22 22">
 <defs>
  <style id="current-color-scheme" type="text/css">
   .ColorScheme-Text { color:#E6DDFF; } .ColorScheme-Highlight { color:#4285f4; }
  </style>
 </defs>
 <path style="fill:currentColor" class="ColorScheme-Text" d="M 5 2 L 5 4 L 2.9316406 4 C 1.8618406 4 1 4.9391187 1 6.1054688 L 1 11.894531 C 1 13.060831 1.8618906 14 2.9316406 14 L 13.068359 14 C 14.138159 14 15 13.060881 15 11.894531 L 15 6.1054688 C 15 4.9391687 14.138109 4 13.068359 4 L 11 4 L 11 6 L 12.998047 6 C 12.996047 6.009 13 6.0262987 13 6.1054688 L 13 11.894531 C 13 11.973631 12.996047 11.99113 12.998047 12 L 3.0039062 12 C 3.0049063 11.991 3 11.973701 3 11.894531 L 3 6.1054688 C 3 6.0262687 3.0049062 6.00887 3.0039062 6 L 5 6 L 5 8 L 9 5 L 5 2 z" transform="translate(3 3)"/>
</svg>
